X:4
T:Boatman
T:Dance, Boatman,\ Dance
C:Dan Emmett (1843)
G:Key: A
S:https://youtu.be/8lhS9xpyblI
Z:abc-transcription Josh Larios <hades@elsewhere.org>, 2017.02.15
M:2/4
L:1/8
K:A
[P:A]|: "A"a2 a2 | ba f2 | ef e/c/A | "E"BA "A"A2 :|
[P:B]|| "D"ff "A"e>e | "D"ff "A"e>e | "D"ff "A"ec | "E"BB "A"A2 |
| "D"ff "A"ec | "D"ff "A"e>e | "D"ff "A"ec/c/ | "E"BA "A"AB ||
[P:C]|| "A"c2 Bc | e3d | c2 Bc | "F#m"A3B | 
| "A"cc Bc | ee AB | "D"cc/c/ "E"Bc/B/ | "A"A2 A2 || 

